src/assets/tools.svg

<svg width="151" height="358" viewBox="0 0 151 358" fill="none" xmlns="http://www.w3.org/2000/svg">
<path d="M38 79.3798C45.3097 77.7448 53.3992 76.5731 62 75.9686" stroke="black"/>
<path d="M100 77.0826C103.635 77.5682 107.143 78.1587 110.5 78.8449" stroke="black"/>
<path d="M33.5 80.4702C13.5874 85.684 0.5 94.501 0.5 104.5C0.5 120.516 34.0786 133.5 75.5 133.5C116.921 133.5 150.5 120.516 150.5 104.5C150.5 94.0071 136.088 84.8158 114.5 79.7243" stroke="black"/>
<path d="M118.5 355C118.5 356.105 99.8005 357.5 75.5 357.5C51.1995 357.5 32 356.105 32 355" stroke="black"/>
<path d="M1 105.5L32 355" stroke="black" stroke-linecap="round"/>
<path d="M150 105.5L118.5 355" stroke="black" stroke-linecap="round"/>
<path d="M90.5 119.5L90.6316 119.983L90.5 119.5ZM82.5 99.0002L82.0036 99.0598L82.5 99.0002ZM80.5 46L80.9649 46.184L80.5 46ZM90.5 119.5L90.3685 119.018C89.9518 119.131 89.4864 119.156 88.9705 118.894C88.4386 118.623 87.7886 118.015 87.0903 116.718C85.6879 114.113 84.1955 108.932 82.9965 98.9406L82.5 99.0002L82.0036 99.0598C83.2046 109.068 84.7122 114.41 86.2098 117.192C86.9614 118.588 87.7365 119.388 88.5171 119.785C89.3137 120.191 90.0482 120.142 90.6316 119.983L90.5 119.5ZM82.5 99.0002L82.9965 98.9406C82.2452 92.68 81.3727 87.1715 80.5807 82.2027C79.7881 77.23 79.0776 72.8068 78.6457 68.6978C77.7831 60.4913 78.0369 53.581 80.9649 46.184L80.5 46L80.0351 45.816C77.0255 53.4191 76.7794 60.5088 77.6512 68.8024C78.0865 72.9434 78.8018 77.3953 79.5932 82.3601C80.3852 87.3289 81.2549 92.8204 82.0036 99.0598L82.5 99.0002ZM80.5 46L80.9649 46.184C82.1329 43.2333 83.5071 41.3621 84.969 40.3248C86.4129 39.3002 87.9825 39.0598 89.6358 39.4477C91.3081 39.8402 93.0797 40.8807 94.8656 42.4472C96.6476 44.0103 98.4185 46.0748 100.09 48.4734C103.433 53.2713 106.348 59.3636 108.146 65.3394C109.949 71.3296 110.607 77.131 109.516 81.3755L110 81.5001L110.484 81.6246C111.643 77.1191 110.926 71.108 109.104 65.0513C107.277 58.9803 104.317 52.7913 100.91 47.9017C99.2065 45.4565 97.3836 43.3257 95.525 41.6954C93.6703 40.0686 91.7544 38.9177 89.8642 38.4742C87.955 38.0262 86.087 38.3053 84.3903 39.5092C82.7117 40.7004 81.2421 42.7667 80.0351 45.816L80.5 46ZM110 81.5001L109.516 81.3755C107.261 90.1437 105.146 98.8482 102.227 105.743C99.3008 112.654 95.632 117.582 90.3685 119.018L90.5 119.5L90.6316 119.983C96.368 118.418 100.199 113.097 103.148 106.133C106.104 99.1519 108.239 90.3564 110.484 81.6246L110 81.5001Z" fill="black"/>
<path d="M78.5 133C79.1667 127.333 80.1 115 78.5 105C76.5 92.5001 68.5 70.0001 71 56.5001C73.5 43.0001 79.5 29.5001 89.5 32.5001C99.5 35.5001 112.5 53.0001 113 61.5001C113.5 70.0001 117.5 81.0001 110.5 101C104.9 117 99.8333 128 98 131.5" stroke="black" stroke-linecap="round"/>
<path d="M63 132.5L56.5 109.5C53.3333 109 46.5 107.5 44.5 105.5C42 103 37 98.0001 34.5 92.5001C32 87.0001 33.5099 68.4944 43 63.0001C52.5 57.5 59 58.2084 67.5 66.0001C76.7728 74.5001 69.5 95.5001 67.5 99.5001C65.9 102.7 63.1667 106.833 62 108.5L74 132.5" stroke="black" stroke-linecap="round"/>
<path d="M38.5 89.5C39.3 96.7 45.8333 100.5 49.5 102C57.5 104 64.1364 97.2272 67 91.5001C70 85.5001 67 74.5 62 69C57 63.5 46 65.5 41.5 72C37 78.5 37.5 80.5 38.5 89.5Z" stroke="black" stroke-linecap="round"/>
<path d="M89.5 0.500061C90.5088 9.13128 91.9975 22.0484 93.5 34.0001" stroke="black" stroke-linecap="round"/>
<path d="M94.3165 41.5001C96.3146 56.1732 98.1887 68.8633 99 71.5001C99.9617 74.6255 101.644 88.6068 103.5 103.5" stroke="black" stroke-linecap="round"/>
<path d="M105.193 115.5C105.887 121.304 106.514 126.711 107 131" stroke="black" stroke-linecap="round"/>
<path d="M67.5 119.5C66.8778 114.484 66.1976 108.962 65.5 103.376" stroke="black" stroke-linecap="round"/>
<path d="M64.5083 95.5001C63.1336 84.6854 61.7654 74.4236 60.7048 68.0001" stroke="black" stroke-linecap="round"/>
<path d="M59.1323 60.5001C57.3069 51.8573 53.3626 18.9533 51.5 2.50008" stroke="black" stroke-linecap="round"/>
<path d="M90 6.50006L76.5 8.00006" stroke="black" stroke-linecap="round"/>
<path d="M91 17.5001L77.5 19.0001" stroke="black" stroke-linecap="round"/>
<path d="M90.5 9.00006L83 10.0001" stroke="black" stroke-linecap="round"/>
<path d="M90.5 12.0001L83.5 13.0001" stroke="black" stroke-linecap="round"/>
<path d="M90.5 15.0001L83.5 16.0001" stroke="black" stroke-linecap="round"/>
<path d="M92 28.5001L78.5 30.0001" stroke="black" stroke-linecap="round"/>
<path d="M91.5 20.0001L84 21.0001" stroke="black" stroke-linecap="round"/>
<path d="M91.5 23.0001L84.5 24.0001" stroke="black" stroke-linecap="round"/>
<path d="M92.5 26.0001L85.5 27.0001" stroke="black" stroke-linecap="round"/>
<path d="M95 51.0001L81.5 52.5001" stroke="black" stroke-linecap="round"/>
<path d="M94.5 42.5001L87 43.5001" stroke="black" stroke-linecap="round"/>
<path d="M94.5 45.5001L87.5 46.5001" stroke="black" stroke-linecap="round"/>
<path d="M94.5 48.5001L87.5 49.5001" stroke="black" stroke-linecap="round"/>
<path d="M97 62.0001L83.5 63.5001" stroke="black" stroke-linecap="round"/>
<path d="M95.5 53.5001L88 54.5001" stroke="black" stroke-linecap="round"/>
<path d="M102 95.5001L88.5 97.0001" stroke="black" stroke-linecap="round"/>
<path d="M101 87.0001L94 88.0001" stroke="black" stroke-linecap="round"/>
<path d="M101.5 90.0001L94.5 91.0001" stroke="black" stroke-linecap="round"/>
<path d="M101.5 93.0001L94.5 94.0001" stroke="black" stroke-linecap="round"/>
<path d="M102.5 106.5L89.5 108" stroke="black" stroke-linecap="round"/>
<path d="M102.5 98.0001L95 99.0001" stroke="black" stroke-linecap="round"/>
<path d="M102.5 101L95.5 102" stroke="black" stroke-linecap="round"/>
<path d="M103 104L96.5 105" stroke="black" stroke-linecap="round"/>
<path d="M101 109.5L97 110" stroke="black" stroke-linecap="round"/>
<path d="M98.5 113H97.5" stroke="black" stroke-linecap="round"/>
<path d="M106.5 128.5L99.5 129" stroke="black" stroke-linecap="round"/>
<path d="M105.5 120L103 120.5" stroke="black" stroke-linecap="round"/>
<path d="M105.5 123L102 123.5" stroke="black" stroke-linecap="round"/>
<path d="M106 126L100.5 126.5" stroke="black" stroke-linecap="round"/>
<path d="M95.5 56.5001L88.5 57.5001" stroke="black" stroke-linecap="round"/>
<path d="M96.5 59.5001L89.5 60.5001" stroke="black" stroke-linecap="round"/>
<path d="M99 73.0001L85.5 74.5001" stroke="black" stroke-linecap="round"/>
<path d="M97.5 64.5001L90 65.5001" stroke="black" stroke-linecap="round"/>
<path d="M97.5 67.5001L90.5 68.5001" stroke="black" stroke-linecap="round"/>
<path d="M98.5 70.5001L91.5 71.5001" stroke="black" stroke-linecap="round"/>
<path d="M101 84.0001L87.5 85.5001" stroke="black" stroke-linecap="round"/>
<path d="M99.5 75.5001L92 76.5001" stroke="black" stroke-linecap="round"/>
<path d="M99.5 78.5001L92.5 79.5001" stroke="black" stroke-linecap="round"/>
<path d="M100.5 81.5001L93.5 82.5001" stroke="black" stroke-linecap="round"/>
<path d="M41.75 180.5C41.915 180.665 42.7425 180.75 44.28 180.503C47.7895 179.938 53.5218 175.384 58.8487 163.205C62 156 60.7525 152.093 60.0887 150.47C59.4959 149.021 57.7575 148.585 56.385 148.335C55.275 148.133 53.6775 148.663 51.8462 149.576C49.185 150.904 48.345 160.18 45.7612 171.368C43.45 181.375 41.925 189.648 40.4687 192.811C39.5829 194.736 38.5875 195.663 37.6737 195.958C37.1838 196.116 36.595 195.18 36.2975 194.345C35.6769 192.603 36.495 190.675 37.6575 189.136C40.5856 185.261 50.29 186.415 55.0275 186.998C57.3954 187.289 57.6012 187.08 58.8487 186.998C61.3215 186.834 65.3812 186.724 68.9862 180.5C69.5955 179.448 71.5 174.345 71.3762 173.8C71.2525 173.255 71.005 172.76 70.5475 172.505C70.09 172.25 69.43 172.25 68.8012 172.539C65.532 174.04 64.59 181.05 64.9537 186.565C65.0349 187.795 65.905 188.73 66.5737 189.405C67.2425 190.08 67.985 190.41 68.9862 190.291C73.9997 189.697 77.315 183.03 80.6562 174.739C82.7791 169.471 82.2475 165.093 82.54 164.006C82.585 163.828 82.42 164.405 82.2112 168.415C82.0025 172.425 81.755 179.85 80.75 186.5" stroke="black" stroke-linecap="round"/>
<path d="M72.75 177.5C76.9575 175.685 81.165 173.87 83.58 172.811C85.995 171.753 86.49 171.505 87 171.5" stroke="black" stroke-linecap="round"/>
<path d="M91.5 156.5C91.4175 157.82 91.335 159.14 91.2925 160.645C91.25 162.15 91.25 163.8 91.25 165.25" stroke="black" stroke-linecap="round"/>
<path d="M102.5 166.5C102.5 166.335 101.459 163.88 97.5 166.5C96.0033 167.491 93.6167 170 95.0375 173.361C96.667 177.216 100.827 178.328 101.785 179.739C102.898 181.379 102.252 183.988 101.465 186.193C101.092 187.236 100.1 187.82 98.9325 188.078C97.765 188.335 96.28 188.17 95.2262 187.838C94.1725 187.505 93.595 187.01 93.4212 186.384C93.2475 185.758 93.495 185.015 95.7262 182.941C97.9575 180.868 102.165 177.485 107 173.75" stroke="black" stroke-linecap="round"/>
<path d="M70.75 214.25C74.545 211.115 76.9125 208.345 77.3725 206.306C77.5673 205.443 77.09 204.845 76.6313 204.424C75.7228 203.59 74.175 203.418 72.2238 203.458C67.0529 203.564 62.94 208.23 59.1388 214.178C55.6849 219.582 56 226.723 56.2888 231.136C56.4008 232.848 57.155 233.405 57.7413 233.909C58.8647 234.874 60.4075 235.25 62.525 235.003C68.4541 234.31 71.985 227.198 73.6575 224.759C73.845 225.373 72.69 229.745 71.8063 233.813C70.9225 237.88 70.345 241.51 69.5 244.5" stroke="black" stroke-linecap="round"/>
<path d="M82.5 214.25C80.755 216.41 78.925 219.73 77.795 223.485C77.0936 225.816 77.415 227.993 77.8713 229.365C78.2899 230.624 79.495 231.165 80.4925 231.415C82.8686 232.011 87.06 228.185 89.4113 225.426C91.9641 222.431 90.335 216.6 89.5463 214.174C89.3722 213.638 88.595 213.505 88.0088 213.378C86.8648 213.129 85.0125 214.158 82.9313 215.904C81.3842 217.202 81.0025 218.91 80.6688 220.158C80.5153 220.731 80.665 221.24 80.955 221.619C81.245 221.998 81.74 222.245 82.4075 222.29C85.8225 221.01 91.3 214.545 95.3638 210.715" stroke="black" stroke-linecap="round"/>
<path d="M42.25 267C44.81 263.615 50.2425 256.508 51.6562 255.218C52.2961 254.634 52.905 254.34 53.4087 254.913C54.8966 256.603 54.5025 264.358 54.0037 273.769C53.7575 278.415 53.1675 280.243 53.2487 279.965C54.3357 276.253 55.24 270.363 57.235 264.998C58.9371 260.42 60.9925 257.758 62.4062 256.591C63.0186 256.086 63.655 256.085 64.1588 256.414C67.0875 258.325 65.7525 267.53 65.4188 275.118C65.3536 276.599 66.7375 269.81 69.19 259.738C70.7774 253.218 73.6575 250.673 75.4038 249.88C76.1922 249.522 76.985 249.83 77.5325 250.616C78.08 251.403 78.41 252.805 78.3737 257.611C78.3375 262.418 77.925 270.585 77.795 275.576C77.83 282.135 78.66 285.73 79.7425 289.06C80.165 290.41 80.33 291.07 81 292.25" stroke="black" stroke-linecap="round"/>
<path d="M82.5 274.5C88.2325 272.018 93.4 266.19 94.625 262.428C94.8122 261.853 94.01 261.67 93.5075 261.709C91.0662 261.897 88.6 267.47 86.795 274.019C86.1848 276.233 87.33 277.91 88.0363 279.116C88.6635 280.188 89.8275 280.665 91.115 280.791C92.669 280.944 94.5725 278.93 96.445 276.476C100.323 271.394 101.16 257.985 101.791 253.045C102.578 246.885 100.665 268.993 101.41 270.324C101.814 271.045 102.98 271.325 103.82 271.208C107.754 270.657 108.825 262.945 109.747 257.933C109.918 257.006 110.08 256.51 110.495 256.255C110.91 256 111.57 256 112.281 256.413C113.933 257.37 115.078 261.14 115.829 265.924C116.162 268.049 115.755 269.635 114.761 270.814C113.767 271.993 112.035 272.735 110.812 272.911C109.59 273.088 108.93 272.675 108.25 272.25" stroke="black" stroke-linecap="round"/>
<path d="M96.75 264C96.255 264.083 95.76 264.165 97.3612 262.97C98.9625 261.775 102.675 259.3 106.25 256.75" stroke="black" stroke-linecap="round"/>
<path d="M119.75 264.75L123.75 228.75" stroke="black" stroke-linecap="round"/>
<path d="M119.75 273.5C119.75 273.335 120.245 273.828 121.078 274.125C121.415 273.845 121.58 272.69 121.129 272.343C120.678 271.995 119.605 272.49 118.5 273" stroke="black" stroke-linecap="round"/>
<path d="M82 304.5C79.025 303.515 73.18 297.335 70.8 297.333C69.7309 297.331 67.5362 298.438 65.8712 300.433C64.4399 302.148 64.5437 304.755 65 307C65.8958 311.408 74.365 316.055 81.2675 321.061C85.37 325.365 88.41 329.733 89.4925 333.389C89.915 335.313 90.08 337.375 90.25 338.5" stroke="black" stroke-linecap="round"/>
<path d="M82 304.5C86.125 296.25 89.9825 294.18 93.0612 292.015C94.3614 291.101 95.315 290.84 96.3188 291.454C98.8879 293.025 99.83 296.983 100 300.433C100.171 303.894 96.025 309.873 91.945 317.364C88.9175 325.238 89.9175 337.58 90.5 339" stroke="black" stroke-linecap="round"/>
</svg>

<svg xmlns="http://www.w3.org/2000/svg" width="151" height="358" fill="none"><path stroke="#000" d="M38 79.38c7.31-1.635 15.4-2.807 24-3.411M100 77.083c3.635.485 7.143 1.076 10.5 1.762M33.5 80.47C13.587 85.684.5 94.501.5 104.5c0 16.016 33.579 29 75 29s75-12.984 75-29c0-10.493-14.412-19.684-36-24.776M118.5 355c0 1.105-18.7 2.5-43 2.5S32 356.105 32 355"/><path stroke="#000" stroke-linecap="round" d="M1 105.5 32 355M150 105.5 118.5 355"/><path fill="#000" d="m90.5 119.5.132.483zm-8-20.5-.496.06zm-2-53 .465.184zm10 73.5-.132-.482c-.416.113-.882.138-1.397-.124-.532-.271-1.182-.879-1.88-2.176-1.403-2.605-2.895-7.786-4.094-17.777L82.5 99l-.496.059c1.2 10.008 2.708 15.35 4.206 18.132.751 1.396 1.527 2.196 2.307 2.593.797.406 1.531.357 2.115.198zm-8-20.5.496-.06c-.75-6.26-1.623-11.769-2.415-16.737-.793-4.973-1.503-9.396-1.935-13.505-.863-8.207-.61-15.117 2.319-22.514L80.5 46l-.465-.184c-3.01 7.603-3.256 14.693-2.384 22.986.436 4.141 1.15 8.593 1.942 13.558.792 4.969 1.662 10.46 2.41 16.7zm-2-53 .465.184c1.168-2.95 2.542-4.822 4.004-5.86 1.444-1.024 3.014-1.264 4.667-.876 1.672.392 3.444 1.433 5.23 3 1.782 1.562 3.552 3.627 5.224 6.025 3.343 4.798 6.258 10.89 8.056 16.866 1.803 5.99 2.461 11.792 1.37 16.037l.484.124.484.125c1.159-4.506.442-10.517-1.38-16.574-1.827-6.07-4.787-12.26-8.194-17.15-1.703-2.445-3.526-4.575-5.385-6.206-1.855-1.626-3.77-2.777-5.66-3.22-1.91-.449-3.778-.17-5.475 1.034-1.678 1.191-3.148 3.258-4.355 6.307zM110 81.5l-.484-.124c-2.255 8.768-4.37 17.472-7.289 24.367-2.926 6.911-6.595 11.839-11.859 13.275l.132.482.132.483c5.736-1.565 9.567-6.886 12.516-13.85 2.956-6.981 5.091-15.777 7.336-24.508z"/><path stroke="#000" stroke-linecap="round" d="M78.5 133c.667-5.667 1.6-18 0-28-2-12.5-10-35-7.5-48.5s8.5-27 18.5-24 23 20.5 23.5 29 4.5 19.5-2.5 39.5c-5.6 16-10.667 27-12.5 30.5"/><path stroke="#000" stroke-linecap="round" d="m63 132.5-6.5-23c-3.167-.5-10-2-12-4-2.5-2.5-7.5-7.5-10-13S33.51 68.494 43 63c9.5-5.5 16-4.792 24.5 3 9.273 8.5 2 29.5 0 33.5-1.6 3.2-4.333 7.333-5.5 9l12 24"/><path stroke="#000" stroke-linecap="round" d="M38.5 89.5c.8 7.2 7.333 11 11 12.5 8 2 14.636-4.773 17.5-10.5 3-6 0-17-5-22.5s-16-3.5-20.5 3-4 8.5-3 17.5ZM89.5.5c1.009 8.631 2.498 21.548 4 33.5M94.317 41.5c1.998 14.673 3.872 27.363 4.683 30 .962 3.126 2.644 17.107 4.5 32M105.193 115.5c.694 5.804 1.321 11.211 1.807 15.5M67.5 119.5c-.622-5.016-1.302-10.538-2-16.124"/><path stroke="#000" stroke-linecap="round" d="M64.508 95.5c-1.374-10.815-2.743-21.076-3.803-27.5M59.132 60.5c-1.825-8.643-5.77-41.547-7.632-58M90 6.5 76.5 8M91 17.5 77.5 19M90.5 9 83 10M90.5 12l-7 1M90.5 15l-7 1M92 28.5 78.5 30M91.5 20 84 21M91.5 23l-7 1M92.5 26l-7 1M95 51l-13.5 1.5M94.5 42.5l-7.5 1M94.5 45.5l-7 1M94.5 48.5l-7 1M97 62l-13.5 1.5M95.5 53.5l-7.5 1M102 95.5 88.5 97M101 87l-7 1M101.5 90l-7 1M101.5 93l-7 1M102.5 106.5l-13 1.5M102.5 98 95 99M102.5 101l-7 1M103 104l-6.5 1M101 109.5l-4 .5M98.5 113h-1M106.5 128.5l-7 .5M105.5 120l-2.5.5M105.5 123l-3.5.5M106 126l-5.5.5M95.5 56.5l-7 1M96.5 59.5l-7 1M99 73l-13.5 1.5M97.5 64.5l-7.5 1M97.5 67.5l-7 1M98.5 70.5l-7 1M101 84l-13.5 1.5M99.5 75.5l-7.5 1M99.5 78.5l-7 1M100.5 81.5l-7 1M41.75 180.5c.165.165.992.25 2.53.003 3.51-.565 9.242-5.119 14.569-17.298C62 156 60.753 152.093 60.089 150.47c-.593-1.449-2.331-1.885-3.704-2.135-1.11-.202-2.707.328-4.539 1.241-2.661 1.328-3.501 10.604-6.085 21.792-2.311 10.007-3.836 18.28-5.292 21.443-.886 1.925-1.882 2.852-2.795 3.147-.49.158-1.079-.778-1.376-1.613-.621-1.742.197-3.67 1.36-5.209 2.928-3.875 12.632-2.721 17.37-2.138 2.367.291 2.573.082 3.82 0 2.474-.164 6.533-.274 10.138-6.498.61-1.052 2.514-6.155 2.39-6.7s-.371-1.04-.829-1.295-1.117-.255-1.746.034c-3.269 1.501-4.211 8.511-3.847 14.026.08 1.23.951 2.165 1.62 2.84s1.411 1.005 2.412.886c5.014-.594 8.329-7.261 11.67-15.552 2.123-5.268 1.591-9.646 1.884-10.733.045-.178-.12.399-.329 4.409s-.456 11.435-1.461 18.085"/><path stroke="#000" stroke-linecap="round" d="M72.75 177.5c4.207-1.815 8.415-3.63 10.83-4.689 2.415-1.058 2.91-1.306 3.42-1.311M91.5 156.5c-.082 1.32-.165 2.64-.207 4.145-.043 1.505-.043 3.155-.043 4.605M102.5 166.5c0-.165-1.041-2.62-5 0-1.497.991-3.883 3.5-2.463 6.861 1.63 3.855 5.79 4.967 6.748 6.378 1.113 1.64.467 4.249-.32 6.454-.373 1.043-1.365 1.627-2.532 1.885-1.168.257-2.653.092-3.707-.24-1.053-.333-1.631-.828-1.805-1.454s.074-1.369 2.305-3.443 6.439-5.456 11.274-9.191M70.75 214.25c3.795-3.135 6.162-5.905 6.623-7.944.194-.863-.283-1.461-.742-1.882-.908-.834-2.456-1.006-4.407-.966-5.171.106-9.284 4.772-13.085 10.72-3.454 5.404-3.139 12.545-2.85 16.958.112 1.712.866 2.269 1.452 2.773 1.124.965 2.666 1.341 4.784 1.094 5.93-.693 9.46-7.805 11.133-10.244.187.614-.968 4.986-1.852 9.054-.883 4.067-1.461 7.697-2.306 10.687M82.5 214.25c-1.745 2.16-3.575 5.48-4.705 9.235a9.93 9.93 0 0 0 .076 5.88c.419 1.259 1.624 1.8 2.622 2.05 2.376.596 6.567-3.23 8.918-5.989 2.553-2.995.924-8.826.135-11.252-.174-.536-.951-.669-1.537-.796-1.144-.249-2.996.78-5.078 2.526-1.547 1.298-1.928 3.006-2.262 4.254a1.65 1.65 0 0 0 .286 1.461c.29.379.785.626 1.453.671 3.415-1.28 8.892-7.745 12.956-11.575M42.25 267c2.56-3.385 7.993-10.492 9.406-11.782.64-.584 1.249-.878 1.753-.305 1.488 1.69 1.093 9.445.595 18.856-.246 4.646-.837 6.474-.755 6.196 1.087-3.712 1.991-9.602 3.986-14.967 1.702-4.578 3.758-7.24 5.171-8.407.613-.505 1.249-.506 1.753-.177 2.928 1.911 1.593 11.116 1.26 18.704-.065 1.481 1.319-5.308 3.771-15.38 1.587-6.52 4.468-9.065 6.214-9.858.788-.358 1.581-.05 2.129.736.547.787.877 2.189.84 6.995-.035 4.807-.448 12.974-.578 17.965.035 6.559.865 10.154 1.948 13.484.422 1.35.587 2.01 1.257 3.19M82.5 274.5c5.733-2.482 10.9-8.31 12.125-12.072.187-.575-.615-.758-1.118-.719-2.44.188-4.907 5.761-6.712 12.31-.61 2.214.535 3.891 1.241 5.097.627 1.072 1.791 1.549 3.079 1.675 1.554.153 3.458-1.861 5.33-4.315 3.878-5.082 4.715-18.491 5.346-23.431.787-6.16-1.126 15.948-.381 17.279.404.721 1.57 1.001 2.41.884 3.934-.551 5.005-8.263 5.927-13.275.171-.927.333-1.423.748-1.678s1.075-.255 1.786.158c1.652.957 2.797 4.727 3.548 9.511.333 2.125-.074 3.711-1.068 4.89s-2.726 1.921-3.949 2.097c-1.222.177-1.882-.236-2.562-.661"/><path stroke="#000" stroke-linecap="round" d="M96.75 264c-.495.083-.99.165.611-1.03 1.602-1.195 5.314-3.67 8.889-6.22M119.75 264.75l4-36M119.75 273.5c0-.165.495.328 1.328.625.337-.28.502-1.435.051-1.782-.451-.348-1.524.147-2.629.657M82 304.5c-2.975-.985-8.82-7.165-11.2-7.167-1.07-.002-3.264 1.105-4.929 3.1-1.431 1.715-1.327 4.322-.871 6.567.896 4.408 9.365 9.055 16.267 14.061 4.103 4.304 7.143 8.672 8.226 12.328.422 1.924.587 3.986.757 5.111"/><path stroke="#000" stroke-linecap="round" d="M82 304.5c4.125-8.25 7.983-10.32 11.061-12.485 1.3-.914 2.254-1.175 3.258-.561 2.569 1.571 3.511 5.529 3.681 8.979.171 3.461-3.975 9.44-8.055 16.931-3.027 7.874-2.027 20.216-1.445 21.636"/></svg>
